Numix-GalliumOS/64/mimetypes/wps-office-dpt.svg

<svg xmlns="http://www.w3.org/2000/svg" xmlns:xlink="http://www.w3.org/1999/xlink" width="64px" height="64px" viewBox="0 0 64 64" version="1.1">
<g id="surface1">
<path style=" stroke:none;fill-rule:nonzero;fill:rgb(81.960784%,27.45098%,14.901961%);fill-opacity:1;" d="M 10.6875 0 C 9.3125 0 8 1.378906 8 2.8125 L 8 61.1875 C 8 62.539062 9.390625 64 10.6875 64 L 53.3125 64 C 54.609375 64 56 62.539062 56 61.1875 L 56 2.75 C 56 1.402344 54.597656 0 53.25 0 Z M 10.6875 0 "/>
<path style=" stroke:none;fill-rule:nonzero;fill:rgb(0%,0%,0%);fill-opacity:0.196078;" d="M 8 48 L 8 61.335938 C 8 62.632812 9.375 64 10.664062 64 L 53.335938 64 C 54.625 64 56 62.632812 56 61.335938 L 56 48 Z M 8 48 "/>
<path style=" stroke:none;fill-rule:nonzero;fill:rgb(100%,100%,100%);fill-opacity:1;" d="M 16 22 L 26 22 L 26 28 L 16 28 Z M 16 22 "/>
<path style=" stroke:none;fill-rule:nonzero;fill:rgb(100%,100%,100%);fill-opacity:1;" d="M 16 32 L 26 32 L 26 38 L 16 38 Z M 16 32 "/>
<path style=" stroke:none;fill-rule:nonzero;fill:rgb(100%,100%,100%);fill-opacity:1;" d="M 40 19.984375 L 40 28 L 48 28 C 48 23.570312 44.417969 19.984375 40 19.984375 Z M 40 19.984375 "/>
<path style=" stroke:none;fill-rule:nonzero;fill:rgb(100%,100%,100%);fill-opacity:1;" d="M 20.425781 60.222656 C 20.492188 60.238281 20.566406 60.246094 20.640625 60.246094 C 20.722656 60.246094 20.796875 60.246094 20.863281 60.246094 C 21.410156 60.246094 21.871094 60.148438 22.238281 59.960938 C 22.617188 59.769531 22.921875 59.515625 23.140625 59.179688 C 23.378906 58.851562 23.542969 58.464844 23.632812 58.015625 C 23.742188 57.554688 23.796875 57.054688 23.796875 56.515625 C 23.796875 56.046875 23.757812 55.589844 23.675781 55.136719 C 23.601562 54.695312 23.460938 54.300781 23.265625 53.957031 C 23.070312 53.613281 22.796875 53.339844 22.453125 53.144531 C 22.117188 52.929688 21.675781 52.824219 21.132812 52.824219 C 21.027344 52.824219 20.910156 52.832031 20.78125 52.839844 C 20.648438 52.839844 20.535156 52.855469 20.425781 52.882812 L 20.425781 60.222656 M 26.257812 56.515625 C 26.257812 57.53125 26.109375 58.394531 25.824219 59.113281 C 25.546875 59.820312 25.160156 60.394531 24.660156 60.84375 C 24.160156 61.289062 23.570312 61.625 22.871094 61.828125 C 22.183594 62.035156 21.429688 62.132812 20.601562 62.132812 C 20.171875 62.132812 19.746094 62.109375 19.320312 62.058594 C 18.917969 62.027344 18.476562 61.960938 18 61.871094 L 18 51.199219 C 18.558594 51.09375 19.074219 51.019531 19.558594 50.988281 C 20.042969 50.953125 20.5 50.9375 20.917969 50.9375 C 21.722656 50.9375 22.445312 51.042969 23.101562 51.25 C 23.773438 51.460938 24.339844 51.800781 24.800781 52.257812 C 25.257812 52.710938 25.609375 53.285156 25.867188 53.988281 C 26.128906 54.6875 26.257812 55.53125 26.257812 56.515625 "/>
<path style=" stroke:none;fill-rule:nonzero;fill:rgb(100%,100%,100%);fill-opacity:1;" d="M 31.203125 50.9375 C 32.753906 50.9375 33.953125 51.226562 34.804688 51.800781 C 35.65625 52.363281 36.085938 53.300781 36.085938 54.585938 C 36.085938 55.898438 35.65625 56.84375 34.789062 57.433594 C 33.9375 58.007812 32.722656 58.300781 31.148438 58.300781 L 30.277344 58.300781 L 30.277344 61.992188 L 27.851562 61.992188 L 27.851562 51.199219 C 28.085938 51.152344 28.351562 51.109375 28.636719 51.078125 C 28.941406 51.042969 29.246094 51.019531 29.546875 51.003906 C 29.851562 50.980469 30.144531 50.960938 30.433594 50.953125 C 30.71875 50.9375 30.976562 50.9375 31.203125 50.9375 M 31.476562 52.824219 C 31.335938 52.824219 31.128906 52.832031 30.867188 52.839844 C 30.613281 52.839844 30.417969 52.855469 30.277344 52.882812 L 30.277344 56.40625 L 31.261719 56.40625 C 32.03125 56.40625 32.625 56.277344 33.015625 56.007812 C 33.410156 55.71875 33.609375 55.242188 33.609375 54.570312 C 33.609375 53.941406 33.410156 53.488281 33.015625 53.234375 C 32.632812 52.964844 32.121094 52.824219 31.476562 52.824219 "/>
<path style=" stroke:none;fill-rule:nonzero;fill:rgb(100%,100%,100%);fill-opacity:1;" d="M 46 51.0625 L 46 52.855469 L 42.785156 52.855469 L 42.785156 61.992188 L 40.339844 61.992188 L 40.339844 52.855469 L 37.132812 52.855469 L 37.132812 51.0625 L 46 51.0625 "/>
<path style=" stroke:none;fill-rule:nonzero;fill:rgb(100%,100%,100%);fill-opacity:1;" d="M 38.003906 22 C 33.585938 22 30 25.578125 30 30 C 30 34.421875 33.585938 38 38.003906 38 C 42.421875 38 46 34.421875 46 30 L 38.003906 30 Z M 38.003906 22 "/>
</g>
</svg>

<svg xmlns="http://www.w3.org/2000/svg" viewBox="0 0 64 64">
 <g>
  <path d="m 10.688 0 c -1.375 0 -2.688 1.379 -2.688 2.813 l 0 58.38 c 0 1.352 1.391 2.813 2.688 2.813 l 42.625 0 c 1.297 0 2.688 -1.461 2.688 -2.813 l 0 -58.44 c 0 -1.348 -1.402 -2.75 -2.75 -2.75 m -42.563 0" style="fill:#d04526;fill-opacity:1;stroke:none;fill-rule:nonzero"/>
  <path d="m 8 48 l 0 13.336 c 0 1.297 1.375 2.664 2.664 2.664 l 42.672 0 c 1.289 0 2.664 -1.367 2.664 -2.664 l 0 -13.336 m -48 0" style="fill:#000;fill-opacity:0.196;stroke:none;fill-rule:nonzero"/>
  <path d="m 16 22 l 10 0 l 0 6 l -10 0 m 0 -6" style="fill:#fff;fill-opacity:1;stroke:none;fill-rule:nonzero"/>
  <path d="m 16 32 l 10 0 l 0 6 l -10 0 m 0 -6" style="fill:#fff;fill-opacity:1;stroke:none;fill-rule:nonzero"/>
  <path d="m 40 19.984 l 0 8.02 l 8 0 c 0 -4.43 -3.582 -8.02 -8 -8.02 m 0 0" style="fill:#fff;fill-opacity:1;stroke:none;fill-rule:nonzero"/>
  <path d="m 20.426 60.22 c 0.066 0.016 0.141 0.023 0.215 0.023 c 0.082 0 0.156 0 0.223 0 c 0.547 0 1.01 -0.098 1.375 -0.285 c 0.379 -0.191 0.684 -0.445 0.902 -0.781 c 0.238 -0.328 0.402 -0.715 0.492 -1.164 c 0.109 -0.461 0.164 -0.961 0.164 -1.5 c 0 -0.469 -0.039 -0.926 -0.121 -1.379 c -0.074 -0.441 -0.215 -0.836 -0.41 -1.18 c -0.195 -0.344 -0.469 -0.617 -0.813 -0.813 c -0.336 -0.215 -0.777 -0.32 -1.32 -0.32 c -0.105 0 -0.223 0.008 -0.352 0.016 c -0.133 0 -0.246 0.016 -0.355 0.043 l 0 7.34 m 5.832 -3.707 c 0 1.016 -0.148 1.879 -0.434 2.598 c -0.277 0.707 -0.664 1.281 -1.164 1.73 c -0.5 0.445 -1.09 0.781 -1.789 0.984 c -0.688 0.207 -1.441 0.305 -2.27 0.305 c -0.43 0 -0.855 -0.023 -1.281 -0.074 c -0.402 -0.031 -0.844 -0.098 -1.32 -0.188 l 0 -10.672 c 0.559 -0.105 1.074 -0.18 1.559 -0.211 c 0.484 -0.035 0.941 -0.051 1.359 -0.051 c 0.805 0 1.527 0.105 2.184 0.313 c 0.672 0.211 1.238 0.551 1.699 1.01 c 0.457 0.453 0.809 1.027 1.066 1.73 c 0.262 0.699 0.391 1.543 0.391 2.527" style="fill:#fff;fill-opacity:1;stroke:none;fill-rule:nonzero"/>
  <path d="m 31.2 50.938 c 1.551 0 2.75 0.289 3.602 0.863 c 0.852 0.563 1.281 1.5 1.281 2.785 c 0 1.313 -0.43 2.258 -1.297 2.848 c -0.852 0.574 -2.066 0.867 -3.641 0.867 l -0.871 0 l 0 3.691 l -2.426 0 l 0 -10.793 c 0.234 -0.047 0.5 -0.09 0.785 -0.121 c 0.305 -0.035 0.609 -0.059 0.91 -0.074 c 0.305 -0.023 0.598 -0.043 0.887 -0.051 c 0.285 -0.016 0.543 -0.016 0.77 -0.016 m 0.273 1.887 c -0.141 0 -0.348 0.008 -0.609 0.016 c -0.254 0 -0.449 0.016 -0.59 0.043 l 0 3.523 l 0.984 0 c 0.77 0 1.363 -0.129 1.754 -0.398 c 0.395 -0.289 0.594 -0.766 0.594 -1.438 c 0 -0.629 -0.199 -1.082 -0.594 -1.336 c -0.383 -0.27 -0.895 -0.41 -1.539 -0.41" style="fill:#fff;fill-opacity:1;stroke:none;fill-rule:nonzero"/>
  <path d="m 46 51.06 l 0 1.793 l -3.215 0 l 0 9.137 l -2.445 0 l 0 -9.137 l -3.207 0 l 0 -1.793 l 8.867 0" style="fill:#fff;fill-opacity:1;stroke:none;fill-rule:nonzero"/>
  <path d="m 38 22 c -4.418 0 -8 3.578 -8 8 c 0 4.422 3.586 8 8 8 c 4.418 0 7.996 -3.578 7.996 -8 l -7.996 0 m 0 -8" style="fill:#fff;fill-opacity:1;stroke:none;fill-rule:nonzero"/>
 </g>
</svg>
